packages/components/src/components/icon/common/ic-pix-light.svg

<svg width="128" height="80" viewBox="0 0 128 80" fill="none" xmlns="http://www.w3.org/2000/svg">
<path d="M52.5997 60.4001C52.0997 60.4001 51.6997 60 51.6997 59.6V33.7001C51.6997 28.5001 55.9997 24.3 61.1997 24.3H68.8997C74.0997 24.3 78.3997 28.5001 78.3997 33.7001V39.2001C78.3997 44.4001 74.0997 48.6 68.8997 48.6H58.0997C57.5997 48.6 57.1997 48.2 57.1997 47.8C57.1997 47.3 57.5997 47 58.0997 47H68.9997C73.2997 47 76.7997 43.5 76.7997 39.2001V33.7001C76.7997 29.4001 73.2997 26 68.9997 26H61.2997C56.9997 26 53.4997 29.5 53.4997 33.8V59.6C53.4997 60 53.0997 60.4001 52.5997 60.4001Z" fill="#939598"/>
<path d="M86.6999 48.8C86.1999 48.8 85.7999 48.4 85.7999 48V28.6C85.7999 27.1 84.5999 25.9 83.0999 25.9H79.7999C79.2999 25.9 78.8999 25.5 78.8999 25.1C78.8999 24.7 79.2999 24.3 79.7999 24.3H83.0999C85.4999 24.3 87.4999 26.3001 87.4999 28.7001V48C87.4999 48.4 87.0999 48.8 86.6999 48.8Z" fill="#939598"/>
<path d="M85.9001 22.1L84.4001 20.6C84.0001 20.2 84.0001 19.6 84.4001 19.3L85.9001 17.8C86.3001 17.4 86.9001 17.4 87.3001 17.8L88.8001 19.3C89.2001 19.7 89.2001 20.3 88.8001 20.6L87.3001 22.1C86.9001 22.5 86.3001 22.5 85.9001 22.1Z" fill="#32BCAD"/>
<path d="M110.4 36.2001C109.5 36.2001 108.6 35.8001 108 35.2001L100.3 27.5C99.3001 26.5 97.9001 25.9 96.4001 25.9H93.0001C92.5001 25.9 92.1001 25.5 92.1001 25.1C92.1001 24.7 92.5001 24.3 93.0001 24.3H96.3001C98.2001 24.3 100.1 25 101.4 26.4L109.1 34.1C109.4 34.4 109.9 34.6 110.3 34.6C110.8 34.6 111.2 34.4 111.5 34.1L119.2 26.5C120.6 25.1 122.4 24.4 124.3 24.4H127C127.5 24.4 127.9 24.8001 127.9 25.2001C127.9 25.6001 127.5 26 127 26H124.3C122.8 26 121.4 26.6 120.4 27.6L112.7 35.2001C112.2 35.9001 111.3 36.2001 110.4 36.2001Z" fill="#939598"/>
<path d="M96.4001 48.5999H93.0001C92.5001 48.5999 92.1001 48.1999 92.1001 47.7999C92.1001 47.4 92.5001 47 93.0001 47H96.3001C97.8001 47 99.2001 46.4 100.2 45.4L107.9 37.7C108.5 37.1 109.4 36.7 110.3 36.7C111.2 36.7 112.1 37.1 112.7 37.7L120.4 45.2999C121.4 46.2999 122.8 46.9 124.3 46.9H127C127.5 46.9 127.9 47.3 127.9 47.7C127.9 48.2 127.5 48.5 127 48.5H124.3C122.4 48.5 120.5 47.8 119.2 46.4L111.5 38.7999C111.2 38.4999 110.7 38.2999 110.3 38.2999C109.8 38.2999 109.4 38.4999 109.1 38.7999L101.4 46.5C100.1 47.8 98.3001 48.5999 96.4001 48.5999Z" fill="#939598"/>
<path d="M33.0001 52.5999C31.3001 52.5999 29.8001 52 28.6001 50.8L22.3001 44.5C21.9001 44.1 21.1001 44.1 20.6001 44.5L14.2001 50.8C13.0001 52 11.5001 52.5999 9.8001 52.5999H8.6001L16.6001 60.5999C19.1001 63.0999 23.2001 63.0999 25.7001 60.5999L33.8001 52.5999H33.0001Z" fill="#32BCAD"/>
<path d="M9.79971 30.4C11.4997 30.4 12.9997 31 14.1997 32.2L20.5997 38.5C21.0997 39 21.7997 39 22.2997 38.5L28.5997 32.2C29.7997 31 31.2997 30.4 32.9997 30.4H33.7997L25.7997 22.4C23.2997 19.9 19.1997 19.9 16.6997 22.4L8.69971 30.4H9.79971Z" fill="#32BCAD"/>
<path d="M40.3999 37L35.4999 32.2C35.3999 32.2 35.2999 32.2999 35.1999 32.2999H32.9999C31.8999 32.2999 30.6999 32.7999 29.8999 33.5999L23.5999 39.9C22.9999 40.5 22.1999 40.7999 21.3999 40.7999C20.5999 40.7999 19.7999 40.5 19.1999 39.9L12.7999 33.5999C11.9999 32.7999 10.8999 32.2999 9.6999 32.2999H7.0999C6.9999 32.2999 6.8999 32.3 6.7999 32.2L1.8999 37C-0.600098 39.5 -0.600098 43.5 1.8999 46L6.7999 50.7999C6.8999 50.7999 6.9999 50.7 7.0999 50.7H9.7999C10.8999 50.7 12.0999 50.2 12.8999 49.4L19.2999 43.0999C20.3999 41.9999 22.4999 41.9999 23.5999 43.0999L29.8999 49.4C30.6999 50.2 31.7999 50.7 32.9999 50.7H35.1999C35.2999 50.7 35.3999 50.6999 35.4999 50.7999L40.3999 46C42.8999 43.6 42.8999 39.5 40.3999 37Z" fill="#32BCAD"/>
<path d="M59.2998 57.3C58.8998 57.3 58.4998 57.4 58.0998 57.5V59.1C58.3998 59.2 58.6998 59.3 58.9998 59.3C59.7998 59.3 60.1998 59 60.1998 58.3C60.1998 57.6 59.8998 57.3 59.2998 57.3ZM57.7998 60.2V57.1H57.9998V57.2C58.3998 57.1 58.8998 57 59.1998 57C59.4998 57 59.7998 57 59.9998 57.2C60.2998 57.4 60.3998 57.8 60.3998 58.2C60.3998 58.6 60.2998 59 59.8998 59.2C59.5998 59.3 59.2998 59.4 58.9998 59.4C58.6998 59.4 58.3998 59.4 57.9998 59.3V60.2H57.7998Z" fill="#939598"/>
<path d="M62.4001 57.3C61.6001 57.3 61.3001 57.5 61.3001 58.2C61.3001 58.9 61.6001 59.2 62.4001 59.2C63.2001 59.2 63.5001 59 63.5001 58.3C63.6001 57.6 63.2001 57.3 62.4001 57.3ZM63.5001 59.2C63.2001 59.4 62.9001 59.4 62.5001 59.4C62.1001 59.4 61.7001 59.3 61.5001 59.2C61.2001 59 61.1001 58.7 61.1001 58.2C61.1001 57.8 61.2001 57.4 61.5001 57.2C61.8001 57 62.1001 57 62.5001 57C62.9001 57 63.3001 57.1 63.5001 57.2C63.8001 57.4 63.9001 57.7 63.9001 58.2C63.9001 58.7 63.8001 59 63.5001 59.2Z" fill="#939598"/>
<path d="M67.1998 59.4L66.2998 57.5L65.3998 59.4H65.1998L64.2998 57.1H64.5998L65.3998 59L66.2998 57.1H66.4998L67.3998 59L68.1998 57.1H68.4998L67.5998 59.4H67.1998Z" fill="#939598"/>
<path d="M70.0997 57.3C69.3997 57.3 69.0997 57.6 69.0997 58.1H71.1997C71.0997 57.6 70.8997 57.3 70.0997 57.3ZM70.0997 59.5C69.6997 59.5 69.3997 59.4 69.0997 59.2C68.7997 59 68.6997 58.6 68.6997 58.3C68.6997 57.9 68.7997 57.5 69.0997 57.3C69.3997 57.1 69.6997 57.1 69.9997 57.1C70.2997 57.1 70.5997 57.1 70.8997 57.3C71.1997 57.5 71.2997 57.9 71.2997 58.3H68.8997C68.8997 58.8 69.0997 59.2 69.9997 59.2C70.3997 59.2 70.7997 59.1 71.1997 59.1V59.3C70.8997 59.4 70.4997 59.5 70.0997 59.5Z" fill="#939598"/>
<path d="M72.1997 59.4V57.1H72.3997V57.2C72.8997 57.1 73.0997 57 73.4997 57V57.3H73.3997C72.9997 57.3 72.7997 57.3 72.2997 57.5V59.4H72.1997Z" fill="#939598"/>
<path d="M75.1998 57.3C74.4998 57.3 74.1998 57.6 74.1998 58.1H76.2998C76.1998 57.6 75.8998 57.3 75.1998 57.3ZM75.1998 59.5C74.7998 59.5 74.4998 59.4 74.1998 59.2C73.8998 59 73.7998 58.6 73.7998 58.3C73.7998 57.9 73.8998 57.5 74.1998 57.3C74.4998 57.1 74.7998 57.1 75.0998 57.1C75.3998 57.1 75.6998 57.1 75.9998 57.3C76.2998 57.5 76.3998 57.9 76.3998 58.3H73.9998C73.9998 58.8 74.1998 59.2 75.0998 59.2C75.4998 59.2 75.8998 59.1 76.2998 59.1V59.3C75.9998 59.4 75.5998 59.5 75.1998 59.5Z" fill="#939598"/>
<path d="M79.4001 57.5C79.1001 57.4 78.8001 57.2999 78.5001 57.2999C77.7001 57.2999 77.3001 57.5999 77.3001 58.2999C77.3001 58.9999 77.6001 59.2 78.2001 59.2C78.6001 59.2 79.0001 59.1 79.4001 59V57.5ZM79.5001 59.4V59.2999C79.1001 59.3999 78.6001 59.5 78.3001 59.5C78.0001 59.5 77.7001 59.4999 77.5001 59.2999C77.2001 59.0999 77.1001 58.6999 77.1001 58.2999C77.1001 57.8999 77.2001 57.4999 77.6001 57.2999C77.9001 57.1999 78.2001 57.0999 78.5001 57.0999C78.8001 57.0999 79.1001 57.2 79.4001 57.2V56.2H79.7001V59.4H79.5001Z" fill="#939598"/>
<path d="M83.5997 57.2999C83.1997 57.2999 82.7997 57.4 82.3997 57.5V59.0999C82.6997 59.1999 82.9997 59.2999 83.2997 59.2999C84.0997 59.2999 84.4997 58.9999 84.4997 58.2999C84.4997 57.5999 84.1997 57.2999 83.5997 57.2999ZM84.2997 59.2999C83.9997 59.3999 83.6997 59.5 83.3997 59.5C83.0997 59.5 82.6997 59.3999 82.3997 59.2999V59.4H82.1997V56.2H82.4997V57.2999C82.8997 57.1999 83.3997 57.0999 83.6997 57.0999C83.9997 57.0999 84.2997 57.0999 84.4997 57.2999C84.7997 57.4999 84.8997 57.8999 84.8997 58.2999C84.7997 58.6999 84.6997 59.0999 84.2997 59.2999Z" fill="#939598"/>
<path d="M85.2001 60.3V60C85.3001 60 85.5001 60 85.5001 60C85.8001 60 86.0001 59.9 86.2001 59.5L86.3001 59.3L85.1001 57H85.4001L86.4001 59L87.4001 57H87.7001L86.4001 59.6C86.2001 60.1 85.9001 60.2 85.4001 60.2C85.4001 60.3 85.3001 60.3 85.2001 60.3Z" fill="#939598"/>
<path d="M91.3999 58.1H90.4999V58.9001H91.3999C91.9999 58.9001 92.1999 58.8 92.1999 58.5C92.2999 58.2 91.9999 58.1 91.3999 58.1ZM91.2999 56.8H90.5999V57.6H91.2999C91.8999 57.6 92.0999 57.5001 92.0999 57.2001C92.0999 56.9001 91.7999 56.8 91.2999 56.8ZM92.6999 59.2001C92.3999 59.4001 91.9999 59.4001 91.2999 59.4001H89.8999V56.3H91.1999C91.7999 56.3 92.1999 56.3 92.4999 56.5C92.6999 56.6 92.7999 56.8 92.7999 57.1C92.7999 57.4 92.6999 57.6 92.2999 57.8C92.6999 57.9 92.9999 58.1 92.9999 58.5C92.9999 58.9 92.8999 59.1001 92.6999 59.2001Z" fill="#939598"/>
<path d="M95.7001 58.5C95.4001 58.5 95.2001 58.5 94.9001 58.5C94.4001 58.5 94.3001 58.6 94.3001 58.8C94.3001 59 94.4001 59.1 94.8001 59.1C95.1001 59.1 95.5001 59 95.8001 59L95.7001 58.5ZM95.8001 59.4V59.3C95.4001 59.4 95.0001 59.5 94.6001 59.5C94.4001 59.5 94.1001 59.5 93.9001 59.3C93.7001 59.2 93.6001 59 93.6001 58.8C93.6001 58.5 93.7001 58.3 94.0001 58.2C94.2001 58.1 94.6001 58.1 94.9001 58.1C95.1001 58.1 95.5001 58.1 95.7001 58.1C95.7001 57.7 95.5001 57.6 94.8001 57.6C94.6001 57.6 94.2001 57.6 94.0001 57.6V57.1C94.3001 57.1 94.7001 57.1 95.0001 57.1C95.4001 57.1 95.8001 57.1 96.1001 57.3C96.4001 57.5 96.4001 57.7 96.4001 58.1V59.4H95.8001Z" fill="#939598"/>
<path d="M99.2997 59.4V58.1C99.2997 57.7 99.0997 57.5 98.6997 57.5C98.3997 57.5 98.0997 57.6 97.7997 57.6V59.3H97.1997V57H97.6997V57.1C98.0997 57 98.5997 56.9 98.8997 56.9C99.1997 56.9 99.4997 56.9 99.6997 57.1C99.8997 57.3 99.8997 57.5 99.8997 57.8V59.2L99.2997 59.4Z" fill="#939598"/>
<path d="M101.8 59.5C101.5 59.5 101.2 59.5 100.9 59.3C100.6 59.1 100.5 58.7 100.5 58.3C100.5 57.9 100.6 57.5 101 57.3C101.3 57.1 101.6 57.1 102 57.1C102.3 57.1 102.5 57.1 102.8 57.1V57.6C102.6 57.6 102.3 57.6 102.1 57.6C101.5 57.6 101.2 57.8 101.2 58.3C101.2 58.8 101.4 59 101.9 59C102.2 59 102.5 58.9 102.9 58.9V59.4C102.5 59.4 102.2 59.5 101.8 59.5Z" fill="#939598"/>
<path d="M104.8 57.5C104.2 57.5 103.9 57.7 103.9 58.2C103.9 58.7 104.2 58.9 104.8 58.9C105.4 58.9 105.7 58.7 105.7 58.2C105.7 57.8 105.4 57.5 104.8 57.5ZM105.9 59.2C105.6 59.4 105.3 59.4 104.8 59.4C104.3 59.4 104 59.3 103.7 59.2C103.4 59 103.3 58.7 103.3 58.2C103.3 57.8 103.4 57.4 103.7 57.2C104 57 104.3 57 104.8 57C105.3 57 105.6 57.1 105.9 57.2C106.2 57.4 106.3 57.8 106.3 58.2C106.3 58.7 106.2 59 105.9 59.2Z" fill="#939598"/>
<path d="M110 59.5C109.6 59.5 109.2 59.4001 108.9 59.2001C108.5 58.9001 108.4 58.4001 108.4 57.9001C108.4 57.4001 108.5 56.9 109 56.6C109.4 56.4 109.8 56.3 110.3 56.3C110.6 56.3 111 56.3001 111.4 56.4001V57C111.1 57 110.7 57 110.3 57C109.4 57 109 57.3 109 58C109 58.7 109.3 59.1 110 59.1C110.4 59.1 110.9 59.0001 111.4 58.9001V59.4001C111 59.4001 110.5 59.5 110 59.5Z" fill="#939598"/>
<path d="M113.4 57.5C112.9 57.5 112.7 57.7 112.6 58H114.1C114.2 57.6 113.9 57.5 113.4 57.5ZM113.3 59.5C112.9 59.5 112.6 59.5 112.3 59.2C112 59 111.9 58.6 111.9 58.2C111.9 57.9 112 57.5 112.3 57.2C112.6 57 112.9 57 113.3 57C113.6 57 114 57 114.3 57.2C114.7 57.5 114.7 57.9 114.7 58.3H112.5C112.5 58.6 112.7 58.9 113.3 58.9C113.7 58.9 114.1 58.8 114.5 58.8V59.2C114.2 59.4 113.8 59.5 113.3 59.5Z" fill="#939598"/>
<path d="M117.7 59.4V58.1C117.7 57.7 117.5 57.5 117.1 57.5C116.8 57.5 116.5 57.6 116.2 57.6V59.3H115.6V57H116.1V57.1C116.5 57 117 56.9 117.3 56.9C117.6 56.9 117.9 56.9 118.1 57.1C118.3 57.3 118.3 57.5 118.3 57.8V59.2L117.7 59.4Z" fill="#939598"/>
<path d="M120.1 59.5C119.8 59.5 119.5 59.4 119.4 59.2C119.3 59 119.2 58.8 119.2 58.5V57.6H118.7V57.1H119.2L119.3 56.4H119.9V57.1H120.8V57.6H119.9V58.3C119.9 58.5 119.9 58.6 120 58.7C120.1 58.9 120.2 58.9 120.4 58.9C120.5 58.9 120.7 58.9 120.9 58.9V59.4C120.6 59.4 120.3 59.5 120.1 59.5Z" fill="#939598"/>
<path d="M121.4 59.4V57.1H121.9V57.2C122.3 57.1 122.6 57 123 57C123 57 123 57 123.1 57V57.5C123 57.5 122.9 57.5 122.9 57.5C122.6 57.5 122.4 57.5 122 57.6V59.3L121.4 59.4Z" fill="#939598"/>
<path d="M125.5 58.5C125.2 58.5 125 58.5 124.7 58.5C124.2 58.5 124.1 58.6 124.1 58.8C124.1 59 124.2 59.1 124.6 59.1C124.9 59.1 125.3 59 125.6 59L125.5 58.5ZM125.6 59.4V59.3C125.2 59.4 124.8 59.5 124.4 59.5C124.2 59.5 123.9 59.5 123.7 59.3C123.5 59.2 123.4 59 123.4 58.8C123.4 58.5 123.5 58.3 123.8 58.2C124 58.1 124.4 58.1 124.7 58.1C124.9 58.1 125.3 58.1 125.5 58.1C125.5 57.7 125.3 57.6 124.6 57.6C124.4 57.6 124 57.6 123.8 57.6V57.1C124.1 57.1 124.5 57.1 124.8 57.1C125.2 57.1 125.6 57.1 125.9 57.3C126.2 57.5 126.2 57.7 126.2 58.1V59.4H125.6Z" fill="#939598"/>
<path d="M126.9 56.2H127.5V59.4H126.9V56.2Z" fill="#939598"/>
</svg>

<svg width="128" height="80" fill="none" xmlns="http://www.w3.org/2000/svg"><path d="M52.6 60.4c-.5 0-.9-.4-.9-.8V33.7c0-5.2 4.3-9.4 9.5-9.4h7.7c5.2 0 9.5 4.2 9.5 9.4v5.5c0 5.2-4.3 9.4-9.5 9.4H58.1c-.5 0-.9-.4-.9-.8 0-.5.4-.8.9-.8H69c4.3 0 7.8-3.5 7.8-7.8v-5.5c0-4.3-3.5-7.7-7.8-7.7h-7.7c-4.3 0-7.8 3.5-7.8 7.8v25.8c0 .4-.4.8-.9.8ZM86.7 48.8c-.5 0-.9-.4-.9-.8V28.6c0-1.5-1.2-2.7-2.7-2.7h-3.3c-.5 0-.9-.4-.9-.8s.4-.8.9-.8h3.3c2.4 0 4.4 2 4.4 4.4V48c0 .4-.4.8-.8.8Z" fill="#939598"/><path d="m85.9 22.1-1.5-1.5c-.4-.4-.4-1 0-1.3l1.5-1.5c.4-.4 1-.4 1.4 0l1.5 1.5c.4.4.4 1 0 1.3l-1.5 1.5c-.4.4-1 .4-1.4 0Z" fill="#32BCAD"/><path d="M110.4 36.2c-.9 0-1.8-.4-2.4-1l-7.7-7.7c-1-1-2.4-1.6-3.9-1.6H93c-.5 0-.9-.4-.9-.8s.4-.8.9-.8h3.3c1.9 0 3.8.7 5.1 2.1l7.7 7.7c.3.3.8.5 1.2.5.5 0 .9-.2 1.2-.5l7.7-7.6c1.4-1.4 3.2-2.1 5.1-2.1h2.7c.5 0 .9.4.9.8s-.4.8-.9.8h-2.7c-1.5 0-2.9.6-3.9 1.6l-7.7 7.6c-.5.7-1.4 1-2.3 1ZM96.4 48.6H93c-.5 0-.9-.4-.9-.8s.4-.8.9-.8h3.3c1.5 0 2.9-.6 3.9-1.6l7.7-7.7c.6-.6 1.5-1 2.4-1 .9 0 1.8.4 2.4 1l7.7 7.6c1 1 2.4 1.6 3.9 1.6h2.7c.5 0 .9.4.9.8 0 .5-.4.8-.9.8h-2.7c-1.9 0-3.8-.7-5.1-2.1l-7.7-7.6c-.3-.3-.8-.5-1.2-.5-.5 0-.9.2-1.2.5l-7.7 7.7c-1.3 1.3-3.1 2.1-5 2.1Z" fill="#939598"/><path d="M33 52.6c-1.7 0-3.2-.6-4.4-1.8l-6.3-6.3c-.4-.4-1.2-.4-1.7 0l-6.4 6.3c-1.2 1.2-2.7 1.8-4.4 1.8H8.6l8 8c2.5 2.5 6.6 2.5 9.1 0l8.1-8H33ZM9.8 30.4c1.7 0 3.2.6 4.4 1.8l6.4 6.3c.5.5 1.2.5 1.7 0l6.3-6.3c1.2-1.2 2.7-1.8 4.4-1.8h.8l-8-8c-2.5-2.5-6.6-2.5-9.1 0l-8 8h1.1Z" fill="#32BCAD"/><path d="m40.4 37-4.9-4.8c-.1 0-.2.1-.3.1H33c-1.1 0-2.3.5-3.1 1.3l-6.3 6.3c-.6.6-1.4.9-2.2.9-.8 0-1.6-.3-2.2-.9l-6.4-6.3c-.8-.8-1.9-1.3-3.1-1.3H7.1c-.1 0-.2 0-.3-.1L1.9 37c-2.5 2.5-2.5 6.5 0 9l4.9 4.8c.1 0 .2-.1.3-.1h2.7c1.1 0 2.3-.5 3.1-1.3l6.4-6.3c1.1-1.1 3.2-1.1 4.3 0l6.3 6.3c.8.8 1.9 1.3 3.1 1.3h2.2c.1 0 .2 0 .3.1l4.9-4.8c2.5-2.4 2.5-6.5 0-9Z" fill="#32BCAD"/><path d="M59.3 57.3c-.4 0-.8.1-1.2.2v1.6c.3.1.6.2.9.2.8 0 1.2-.3 1.2-1s-.3-1-.9-1Zm-1.5 2.9v-3.1h.2v.1c.4-.1.9-.2 1.2-.2.3 0 .6 0 .8.2.3.2.4.6.4 1s-.1.8-.5 1c-.3.1-.6.2-.9.2-.3 0-.6 0-1-.1v.9h-.2ZM62.4 57.3c-.8 0-1.1.2-1.1.9s.3 1 1.1 1 1.1-.2 1.1-.9c.1-.7-.3-1-1.1-1Zm1.1 1.9c-.3.2-.6.2-1 .2s-.8-.1-1-.2c-.3-.2-.4-.5-.4-1 0-.4.1-.8.4-1 .3-.2.6-.2 1-.2s.8.1 1 .2c.3.2.4.5.4 1s-.1.8-.4 1ZM67.2 59.4l-.9-1.9-.9 1.9h-.2l-.9-2.3h.3l.8 1.9.9-1.9h.2l.9 1.9.8-1.9h.3l-.9 2.3h-.4ZM70.1 57.3c-.7 0-1 .3-1 .8h2.1c-.1-.5-.3-.8-1.1-.8Zm0 2.2c-.4 0-.7-.1-1-.3-.3-.2-.4-.6-.4-.9 0-.4.1-.8.4-1 .3-.2.6-.2.9-.2.3 0 .6 0 .9.2.3.2.4.6.4 1h-2.4c0 .5.2.9 1.1.9.4 0 .8-.1 1.2-.1v.2c-.3.1-.7.2-1.1.2ZM72.2 59.4v-2.3h.2v.1c.5-.1.7-.2 1.1-.2v.3h-.1c-.4 0-.6 0-1.1.2v1.9h-.1ZM75.2 57.3c-.7 0-1 .3-1 .8h2.1c-.1-.5-.4-.8-1.1-.8Zm0 2.2c-.4 0-.7-.1-1-.3-.3-.2-.4-.6-.4-.9 0-.4.1-.8.4-1 .3-.2.6-.2.9-.2.3 0 .6 0 .9.2.3.2.4.6.4 1H74c0 .5.2.9 1.1.9.4 0 .8-.1 1.2-.1v.2c-.3.1-.7.2-1.1.2ZM79.4 57.5c-.3-.1-.6-.2-.9-.2-.8 0-1.2.3-1.2 1s.3.9.9.9c.4 0 .8-.1 1.2-.2v-1.5Zm.1 1.9v-.1c-.4.1-.9.2-1.2.2-.3 0-.6 0-.8-.2-.3-.2-.4-.6-.4-1s.1-.8.5-1c.3-.1.6-.2.9-.2.3 0 .6.1.9.1v-1h.3v3.2h-.2ZM83.6 57.3c-.4 0-.8.1-1.2.2v1.6c.3.1.6.2.9.2.8 0 1.2-.3 1.2-1s-.3-1-.9-1Zm.7 2c-.3.1-.6.2-.9.2-.3 0-.7-.1-1-.2v.1h-.2v-3.2h.3v1.1c.4-.1.9-.2 1.2-.2.3 0 .6 0 .8.2.3.2.4.6.4 1-.1.4-.2.8-.6 1ZM85.2 60.3V60h.3c.3 0 .5-.1.7-.5l.1-.2-1.2-2.3h.3l1 2 1-2h.3l-1.3 2.6c-.2.5-.5.6-1 .6 0 .1-.1.1-.2.1ZM91.4 58.1h-.9v.8h.9c.6 0 .8-.1.8-.4.1-.3-.2-.4-.8-.4Zm-.1-1.3h-.7v.8h.7c.6 0 .8-.1.8-.4 0-.3-.3-.4-.8-.4Zm1.4 2.4c-.3.2-.7.2-1.4.2h-1.4v-3.1h1.3c.6 0 1 0 1.3.2.2.1.3.3.3.6s-.1.5-.5.7c.4.1.7.3.7.7 0 .4-.1.6-.3.7ZM95.7 58.5h-.8c-.5 0-.6.1-.6.3 0 .2.1.3.5.3.3 0 .7-.1 1-.1l-.1-.5Zm.1.9v-.1c-.4.1-.8.2-1.2.2-.2 0-.5 0-.7-.2-.2-.1-.3-.3-.3-.5 0-.3.1-.5.4-.6.2-.1.6-.1.9-.1h.8c0-.4-.2-.5-.9-.5H94v-.5h1c.4 0 .8 0 1.1.2.3.2.3.4.3.8v1.3h-.6ZM99.3 59.4v-1.3c0-.4-.2-.6-.6-.6-.3 0-.6.1-.9.1v1.7h-.6V57h.5v.1c.4-.1.9-.2 1.2-.2.3 0 .6 0 .8.2.2.2.2.4.2.7v1.4l-.6.2ZM101.8 59.5c-.3 0-.6 0-.9-.2-.3-.2-.4-.6-.4-1s.1-.8.5-1c.3-.2.6-.2 1-.2h.8v.5h-.7c-.6 0-.9.2-.9.7 0 .5.2.7.7.7.3 0 .6-.1 1-.1v.5c-.4 0-.7.1-1.1.1ZM104.8 57.5c-.6 0-.9.2-.9.7 0 .5.3.7.9.7.6 0 .9-.2.9-.7 0-.4-.3-.7-.9-.7Zm1.1 1.7c-.3.2-.6.2-1.1.2-.5 0-.8-.1-1.1-.2-.3-.2-.4-.5-.4-1 0-.4.1-.8.4-1 .3-.2.6-.2 1.1-.2.5 0 .8.1 1.1.2.3.2.4.6.4 1 0 .5-.1.8-.4 1ZM110 59.5c-.4 0-.8-.1-1.1-.3-.4-.3-.5-.8-.5-1.3s.1-1 .6-1.3c.4-.2.8-.3 1.3-.3.3 0 .7 0 1.1.1v.6h-1.1c-.9 0-1.3.3-1.3 1s.3 1.1 1 1.1c.4 0 .9-.1 1.4-.2v.5c-.4 0-.9.1-1.4.1ZM113.4 57.5c-.5 0-.7.2-.8.5h1.5c.1-.4-.2-.5-.7-.5Zm-.1 2c-.4 0-.7 0-1-.3-.3-.2-.4-.6-.4-1 0-.3.1-.7.4-1 .3-.2.6-.2 1-.2.3 0 .7 0 1 .2.4.3.4.7.4 1.1h-2.2c0 .3.2.6.8.6.4 0 .8-.1 1.2-.1v.4c-.3.2-.7.3-1.2.3ZM117.7 59.4v-1.3c0-.4-.2-.6-.6-.6-.3 0-.6.1-.9.1v1.7h-.6V57h.5v.1c.4-.1.9-.2 1.2-.2.3 0 .6 0 .8.2.2.2.2.4.2.7v1.4l-.6.2ZM120.1 59.5c-.3 0-.6-.1-.7-.3-.1-.2-.2-.4-.2-.7v-.9h-.5v-.5h.5l.1-.7h.6v.7h.9v.5h-.9v.7c0 .2 0 .3.1.4.1.2.2.2.4.2h.5v.5c-.3 0-.6.1-.8.1ZM121.4 59.4v-2.3h.5v.1c.4-.1.7-.2 1.1-.2h.1v.5h-.2c-.3 0-.5 0-.9.1v1.7l-.6.1ZM125.5 58.5h-.8c-.5 0-.6.1-.6.3 0 .2.1.3.5.3.3 0 .7-.1 1-.1l-.1-.5Zm.1.9v-.1c-.4.1-.8.2-1.2.2-.2 0-.5 0-.7-.2-.2-.1-.3-.3-.3-.5 0-.3.1-.5.4-.6.2-.1.6-.1.9-.1h.8c0-.4-.2-.5-.9-.5h-.8v-.5h1c.4 0 .8 0 1.1.2.3.2.3.4.3.8v1.3h-.6ZM126.9 56.2h.6v3.2h-.6v-3.2Z" fill="#939598"/></svg>
